elementary-add/apps/48/grooveshark.svg

<?xml version="1.0" encoding="UTF-8" standalone="no"?>
<!-- Created with Inkscape (http://www.inkscape.org/) -->
<svg id="svg4951" xmlns:rdf="http://www.w3.org/1999/02/22-rdf-syntax-ns#" xmlns="http://www.w3.org/2000/svg" height="48px" width="48px" version="1.1" xmlns:cc="http://creativecommons.org/ns#" xmlns:xlink="http://www.w3.org/1999/xlink" xmlns:dc="http://purl.org/dc/elements/1.1/">
 <defs id="defs4953">
  <linearGradient id="linearGradient3189" y2="40.496" gradientUnits="userSpaceOnUse" x2="71.204" gradientTransform="matrix(1.617 0 0 1.617 -92.707 -21.06)" y1="15.369" x1="71.204">
   <stop id="stop4808-4" stop-color="#fff" offset="0"/>
   <stop id="stop4810-0" stop-color="#fff" stop-opacity=".23529" offset=".42448"/>
   <stop id="stop4812-8" stop-color="#fff" stop-opacity=".15686" offset=".82090"/>
   <stop id="stop4814-0" stop-color="#fff" stop-opacity=".39216" offset="1"/>
  </linearGradient>
  <radialGradient id="radialGradient3192" gradientUnits="userSpaceOnUse" cy="3.99" cx="23.896" gradientTransform="matrix(0 2.8885 -3.8128 0 39.213 -65.95)" r="20.397">
   <stop id="stop4369" stop-color="#ffbe44" offset="0"/>
   <stop id="stop4371" stop-color="#c67a00" offset=".66094"/>
   <stop id="stop4373" stop-color="#cb7d00" offset="1"/>
  </radialGradient>
  <radialGradient id="radialGradient3195" gradientUnits="userSpaceOnUse" cy="186.17" cx="99.157" gradientTransform="matrix(.27083 0 0 .087623 -2.8551 25.187)" r="62.769">
   <stop id="stop3822-2-6-3" stop-color="#3d3d3d" offset="0"/>
   <stop id="stop3864-8-7-7" stop-color="#686868" stop-opacity=".49804" offset=".5"/>
   <stop id="stop3824-1-2-5" stop-color="#686868" stop-opacity="0" offset="1"/>
  </radialGradient>
  <clipPath id="clipPath-672761911">
   <g id="g17-1" transform="translate(0 -1004.4)">
    <path id="path19-6" d="m-24 13c0 1.105-0.672 2-1.5 2s-1.5-0.895-1.5-2 0.672-2 1.5-2 1.5 0.895 1.5 2z" transform="matrix(15.333 0 0 11.5 415 878.86)" fill="#1890d0"/>
   </g>
  </clipPath>
  <linearGradient id="linearGradient4489" y2="44.732" gradientUnits="userSpaceOnUse" x2="24.426" y1="3.3626" x1="24.696">
   <stop id="stop4485" stop-color="#fff" offset="0"/>
   <stop id="stop4487" stop-color="#fff" stop-opacity="0" offset="1"/>
  </linearGradient>
 </defs>
 <metadata id="metadata4956">
  <rdf:RDF>
   <cc:Work rdf:about="">
    <dc:format>image/svg+xml</dc:format>
    <dc:type rdf:resource="http://purl.org/dc/dcmitype/StillImage"/>
    <dc:title/>
   </cc:Work>
  </rdf:RDF>
 </metadata>
 <g id="layer1">
  <path id="path3818-0-5" d="m41 41.5a17 5.5 0 0 1 -34 0 17 5.5 0 1 1 34 0z" fill="url(#radialGradient3195)"/>
  <path id="path2555-7-2" style="color:#000000" d="m24 3.5c-11.311 0-20.5 9.1888-20.5 20.5s9.1888 20.5 20.5 20.5 20.5-9.1888 20.5-20.5-9.189-20.5-20.5-20.5z" fill="url(#radialGradient3192)"/>
  <path id="path4176" opacity=".3" stroke-linejoin="round" style="color:#000000" d="m43.5 24c0 10.77-8.73 19.5-19.5 19.5s-19.5-8.73-19.5-19.5 8.73-19.5 19.5-19.5 19.5 8.73 19.5 19.5z" stroke="url(#linearGradient3189)" stroke-linecap="round" fill="none"/>
  <path id="path3871" opacity=".7" style="color:#000000" d="m24 3.5c-11.311 0-20.5 9.189-20.5 20.5s9.189 20.5 20.5 20.5 20.5-9.189 20.5-20.5-9.189-20.5-20.5-20.5z" stroke="#5c3f24" fill="none"/>
  <g id="g4476" transform="matrix(1.9617 0 0 1.9617 -37.823 294.46)"></g>
  <g id="g4474" opacity=".3" transform="translate(0.002,-5e-4)" stroke="url(#linearGradient4489)" stroke-width="2" fill="none">
   <g id="g4477" clip-path="url(#clipPath-672761911)" stroke="url(#linearGradient4489)" stroke-width="2" fill="none"><!-- color: #bbbbbb -->
    <g id="g4479" stroke="url(#linearGradient4489)" stroke-width="2" fill="none">
     <path id="path4481" d="m24.24 9c7.188 0 14.758 5.805 14.758 14.941 0 9.06-7.352 15.06-14.723 15.06-8.746 0-15.02-6.473-15.277-14.516 0-8.254 5.82-15.484 15.242-15.484m11.527 15.07c0.285-7.508-5.891-11.941-11.258-11.941-5.078 0-10.148 2.047-12.172 9.609-0.375 1.402-0.23 3.816 0.531 4.41 1.012 0.801 3.105-0.043 4.422-1.793 1.719-2.566 1.82-5.883 1.305-8.863-0.09-0.352-0.066-0.367 0.438-0.258 4.422 1.168 7.477 4.742 10.211 8.184 2 2.996 6.188 6.539 6.523 0.652" stroke="url(#linearGradient4489)" stroke-width="2" fill="none"/>
    </g>
   </g>
  </g>
  <g id="g47" transform="translate(0.002,-5e-4)">
   <g id="g49" clip-path="url(#clipPath-672761911)"><!-- color: #bbbbbb -->
    <g id="g51">
     <path id="path53" d="m24.24 9c7.188 0 14.758 5.805 14.758 14.941 0 9.06-7.352 15.06-14.723 15.06-8.746 0-15.02-6.473-15.277-14.516 0-8.254 5.82-15.484 15.242-15.484m11.527 15.07c0.285-7.508-5.891-11.941-11.258-11.941-5.078 0-10.148 2.047-12.172 9.609-0.375 1.402-0.23 3.816 0.531 4.41 1.012 0.801 3.105-0.043 4.422-1.793 1.719-2.566 1.82-5.883 1.305-8.863-0.09-0.352-0.066-0.367 0.438-0.258 4.422 1.168 7.477 4.742 10.211 8.184 2 2.996 6.188 6.539 6.523 0.652" fill="#2e2e2e"/>
    </g>
   </g>
  </g>
 </g>
</svg>

<?xml version="1.0" encoding="UTF-8" standalone="no"?>
<!-- Created with Inkscape (http://www.inkscape.org/) -->

<svg
   xmlns:dc="http://purl.org/dc/elements/1.1/"
   xmlns:cc="http://creativecommons.org/ns#"
   xmlns:rdf="http://www.w3.org/1999/02/22-rdf-syntax-ns#"
   xmlns:svg="http://www.w3.org/2000/svg"
   xmlns="http://www.w3.org/2000/svg"
   xmlns:xlink="http://www.w3.org/1999/xlink"
   xmlns:sodipodi="http://sodipodi.sourceforge.net/DTD/sodipodi-0.dtd"
   xmlns:inkscape="http://www.inkscape.org/namespaces/inkscape"
   id="svg4951"
   height="48px"
   width="48px"
   version="1.1"
   inkscape:version="0.91 r13725"
   sodipodi:docname="grooveshark.svg">
  <sodipodi:namedview
     pagecolor="#ffffff"
     bordercolor="#666666"
     borderopacity="1"
     objecttolerance="10"
     gridtolerance="10"
     guidetolerance="10"
     inkscape:pageopacity="0"
     inkscape:pageshadow="2"
     inkscape:window-width="1535"
     inkscape:window-height="876"
     id="namedview38"
     showgrid="false"
     inkscape:zoom="4.9166667"
     inkscape:cx="-10.779661"
     inkscape:cy="24"
     inkscape:window-x="65"
     inkscape:window-y="24"
     inkscape:window-maximized="1"
     inkscape:current-layer="svg4951" />
  <defs
     id="defs4953">
    <linearGradient
       id="linearGradient3189"
       y2="40.496"
       gradientUnits="userSpaceOnUse"
       x2="71.204"
       gradientTransform="matrix(1.617,0,0,1.617,-92.707,-21.06)"
       y1="15.369"
       x1="71.204">
      <stop
         id="stop4808-4"
         stop-color="#fff"
         offset="0" />
      <stop
         id="stop4810-0"
         stop-color="#fff"
         stop-opacity=".23529"
         offset=".42448" />
      <stop
         id="stop4812-8"
         stop-color="#fff"
         stop-opacity=".15686"
         offset=".82090" />
      <stop
         id="stop4814-0"
         stop-color="#fff"
         stop-opacity=".39216"
         offset="1" />
    </linearGradient>
    <radialGradient
       id="radialGradient3192"
       gradientUnits="userSpaceOnUse"
       cy="3.99"
       cx="23.896"
       gradientTransform="matrix(0,2.8885,-3.8128,0,39.213,-65.95)"
       r="20.397">
      <stop
         id="stop4369"
         stop-color="#ffbe44"
         offset="0" />
      <stop
         id="stop4371"
         stop-color="#c67a00"
         offset=".66094" />
      <stop
         id="stop4373"
         stop-color="#cb7d00"
         offset="1" />
    </radialGradient>
    <radialGradient
       id="radialGradient3195"
       gradientUnits="userSpaceOnUse"
       cy="186.17"
       cx="99.157"
       gradientTransform="matrix(0.27083,0,0,0.087623,-2.8551,25.187)"
       r="62.769">
      <stop
         id="stop3822-2-6-3"
         stop-color="#3d3d3d"
         offset="0" />
      <stop
         id="stop3864-8-7-7"
         stop-color="#686868"
         stop-opacity=".49804"
         offset=".5" />
      <stop
         id="stop3824-1-2-5"
         stop-color="#686868"
         stop-opacity="0"
         offset="1" />
    </radialGradient>
    <clipPath
       id="clipPath-672761911">
      <g
         id="g17-1"
         transform="translate(0 -1004.4)">
        <path
           id="path19-6"
           d="m-24 13c0 1.105-0.672 2-1.5 2s-1.5-0.895-1.5-2 0.672-2 1.5-2 1.5 0.895 1.5 2z"
           transform="matrix(15.333 0 0 11.5 415 878.86)"
           fill="#1890d0" />
      </g>
    </clipPath>
    <linearGradient
       id="linearGradient4489"
       y2="44.732"
       gradientUnits="userSpaceOnUse"
       x2="24.426"
       y1="3.3626"
       x1="24.696">
      <stop
         id="stop4485"
         stop-color="#fff"
         offset="0" />
      <stop
         id="stop4487"
         stop-color="#fff"
         stop-opacity="0"
         offset="1" />
    </linearGradient>
    <linearGradient
       inkscape:collect="always"
       xlink:href="#linearGradient4489"
       id="linearGradient4166"
       gradientUnits="userSpaceOnUse"
       x1="24.696"
       y1="3.3626"
       x2="24.426"
       y2="44.732" />
    <linearGradient
       inkscape:collect="always"
       xlink:href="#linearGradient4489"
       id="linearGradient4168"
       gradientUnits="userSpaceOnUse"
       x1="24.696"
       y1="3.3626"
       x2="24.426"
       y2="44.732" />
    <linearGradient
       inkscape:collect="always"
       xlink:href="#linearGradient4489"
       id="linearGradient4170"
       gradientUnits="userSpaceOnUse"
       x1="24.696"
       y1="3.3626"
       x2="24.426"
       y2="44.732" />
    <linearGradient
       inkscape:collect="always"
       xlink:href="#linearGradient4489"
       id="linearGradient4172"
       gradientUnits="userSpaceOnUse"
       x1="24.696"
       y1="3.3626"
       x2="24.426"
       y2="44.732" />
  </defs>
  <metadata
     id="metadata4956">
    <rdf:RDF>
      <cc:Work
         rdf:about="">
        <dc:format>image/svg+xml</dc:format>
        <dc:type
           rdf:resource="http://purl.org/dc/dcmitype/StillImage" />
        <dc:title />
      </cc:Work>
    </rdf:RDF>
  </metadata>
  <path
     inkscape:connector-curvature="0"
     d="M 24,3.5 C 12.689,3.5 3.5,12.6888 3.5,24 3.5,35.3112 12.6888,44.5 24,44.5 35.3112,44.5 44.5,35.3112 44.5,24 44.5,12.6888 35.311,3.5 24,3.5 Z"
     style="color:#000000;fill:url(#radialGradient3192)"
     id="path2555-7-2" />
  <path
     inkscape:connector-curvature="0"
     d="M 43.5,24 C 43.5,34.77 34.77,43.5 24,43.5 13.23,43.5 4.5,34.77 4.5,24 4.5,13.23 13.23,4.5 24,4.5 34.77,4.5 43.5,13.23 43.5,24 Z"
     style="color:#000000;opacity:0.3;fill:none;stroke:url(#linearGradient3189);stroke-linecap:round;stroke-linejoin:round"
     id="path4176" />
  <path
     inkscape:connector-curvature="0"
     d="M 24,3.5 C 12.689,3.5 3.5,12.689 3.5,24 3.5,35.311 12.689,44.5 24,44.5 35.311,44.5 44.5,35.311 44.5,24 44.5,12.689 35.311,3.5 24,3.5 Z"
     style="color:#000000;opacity:0.7;fill:none;stroke:#5c3f24"
     id="path3871" />
  <g
     transform="matrix(1.9617,0,0,1.9617,-37.823,294.46)"
     id="g4476" />
  <g
     style="opacity:0.3;fill:none;stroke:url(#linearGradient4172);stroke-width:2"
     transform="translate(0.002,-5e-4)"
     id="g4474">
    <g
       style="fill:none;stroke:url(#linearGradient4170);stroke-width:2"
       clip-path="url(#clipPath-672761911)"
       id="g4477">
      <!-- color: #bbbbbb -->
      <g
         style="fill:none;stroke:url(#linearGradient4168);stroke-width:2"
         id="g4479">
        <path
           inkscape:connector-curvature="0"
           style="fill:none;stroke:url(#linearGradient4166);stroke-width:2"
           d="m 24.24,9 c 7.188,0 14.758,5.805 14.758,14.941 0,9.06 -7.352,15.06 -14.723,15.06 -8.746,0 -15.02,-6.473 -15.277,-14.516 0,-8.254 5.82,-15.484 15.242,-15.484 m 11.527,15.07 C 36.052,16.563 29.876,12.13 24.509,12.13 c -5.078,0 -10.148,2.047 -12.172,9.609 -0.375,1.402 -0.23,3.816 0.531,4.41 1.012,0.801 3.105,-0.043 4.422,-1.793 1.719,-2.566 1.82,-5.883 1.305,-8.863 -0.09,-0.352 -0.066,-0.367 0.438,-0.258 4.422,1.168 7.477,4.742 10.211,8.184 2,2.996 6.188,6.539 6.523,0.652"
           id="path4481" />
      </g>
    </g>
  </g>
  <g
     transform="translate(0.002,-5e-4)"
     id="g47">
    <g
       clip-path="url(#clipPath-672761911)"
       id="g49">
      <!-- color: #bbbbbb -->
      <g
         id="g51">
        <path
           style="fill:#2e2e2e"
           inkscape:connector-curvature="0"
           d="m 24.24,9 c 7.188,0 14.758,5.805 14.758,14.941 0,9.06 -7.352,15.06 -14.723,15.06 -8.746,0 -15.02,-6.473 -15.277,-14.516 0,-8.254 5.82,-15.484 15.242,-15.484 m 11.527,15.07 C 36.052,16.563 29.876,12.13 24.509,12.13 c -5.078,0 -10.148,2.047 -12.172,9.609 -0.375,1.402 -0.23,3.816 0.531,4.41 1.012,0.801 3.105,-0.043 4.422,-1.793 1.719,-2.566 1.82,-5.883 1.305,-8.863 -0.09,-0.352 -0.066,-0.367 0.438,-0.258 4.422,1.168 7.477,4.742 10.211,8.184 2,2.996 6.188,6.539 6.523,0.652"
           id="path53" />
      </g>
    </g>
  </g>
</svg>
